X:1
T:Ackley, LM
T:Bentley DeForest Ackley, 1915
T:Ackley, LM
T:Public Domain
C:Bentley DeForest Ackley, 1915
Z:Public Domain
%%score 1 ( 2 3 )
L:1/8
M:3/4
K:Eb
V:1 treble 
V:2 bass 
V:3 bass 
V:1
 [B,B][C=A] [D_A] | [EG]3 [EG] [FA]>[B,A] | [GB]4 [Ac]2 | [GB][EG] [DF][EG] [GB]>[FA] | %4
 [EG]3 [EG] [DF][EG] | [FA]3 [FA] [EG][FA] | [GB]3 [Ge] [Bd]>[Ac] | [GB]3 [B,G] [GB]>[FA] | %8
 [EG]3 |] %9
V:2
 z3 | E,,B,, E,2 [E,B,]2 | [E,B,]4 [A,,A,]2 | z B,3 [B,,D]>[D,B,] | [G,B,]3 z3 | B,,D, F,B,, C,D, | %6
 [E,B,]3 [E,B,] [G,E]>[A,E] | [B,E]3 z [B,,,B,,][F,B,D] | (E,2 E,,) |] %9
V:3
 x3 | x6 | x6 | B,,4- x2 | x6 | x3 B,3 | x6 | x6 | B,3 |] %9

